brandFactory_export/1.Light/Familia_1Light.svg

<?xml version="1.0" encoding="UTF-8"?>
<svg width="24px" height="24px" viewBox="0 0 24 24" version="1.1" xmlns="http://www.w3.org/2000/svg" xmlns:xlink="http://www.w3.org/1999/xlink">
    <title>1.Light/Familia_1Light</title>
    <g id="Symbols" stroke="none" stroke-width="1" fill="none" fill-rule="evenodd">
        <g id="1.Light/Familia_1Light" fill="#5CB615" fill-rule="nonzero">
            <path d="M9.84201681,1.12268908 C9.66722689,1.27394958 9.73445378,1.65378151 9.77142857,1.81176471 C9.89915966,2.35966387 10.1546218,2.94453782 10.5277311,3.5394958 C10.8403361,4.03697479 11.0789916,4.3394958 11.5092437,4.79327731 C11.5798319,4.86722689 11.6470588,4.93109244 11.6941176,4.96806723 C11.7445378,4.93109244 11.7983193,4.87731092 11.8588235,4.82016807 L11.8621849,4.81680672 L11.8957983,4.78319328 C12.3193277,4.33613445 12.5546218,4.03361345 12.8638655,3.5394958 C13.2403361,2.94453782 13.4957983,2.35966387 13.6268908,1.81176471 C13.6638655,1.65378151 13.7277311,1.27394958 13.5563025,1.12268908 C13.4789916,1.05546218 13.3512605,1.01176471 13.2134454,1.00504202 L13.1697479,1.00504202 C12.9882353,1.00504202 12.7966387,1.05882353 12.6117647,1.16638655 C12.4941176,1.2302521 12.3764706,1.30084034 12.2453782,1.37815126 L12.0134454,1.51932773 L11.7008403,1.52941176 C11.512605,1.52941176 11.3310924,1.4789916 11.1697479,1.38823529 C11.0218487,1.30084034 10.9042017,1.22689076 10.789916,1.16302521 C10.605042,1.05882353 10.410084,1.00504202 10.2319328,1.00504202 C10.0436975,1.01176471 9.91596639,1.05882353 9.84201681,1.12268908 L9.84201681,1.12268908 Z M9.70084034,4.08403361 C9.26722689,3.39495798 8.96470588,2.7092437 8.81344538,2.04705882 C8.64537815,1.32773109 8.78319328,0.729411765 9.20336134,0.36302521 C9.44537815,0.151260504 9.77815126,0.0235294118 10.1344538,0.00672268908 C10.1647059,0.00336134454 10.194958,0.00336134454 10.2285714,0.00336134454 C10.5747899,0.00336134454 10.9277311,0.100840336 11.2605042,0.28907563 C11.3848739,0.356302521 11.5092437,0.433613445 11.6504202,0.517647059 C11.6638655,0.521008403 11.6773109,0.527731092 11.6941176,0.527731092 C11.707563,0.527731092 11.7243697,0.524369748 11.7378151,0.517647059 C11.8722689,0.433613445 12,0.359663866 12.1243697,0.28907563 C12.4571429,0.100840336 12.810084,0.00336134454 13.1596639,0.00336134454 C13.189916,0.00336134454 13.2201681,0.00336134454 13.2537815,0.00672268908 C13.6134454,0.0235294118 13.9428571,0.151260504 14.1848739,0.36302521 C14.6016807,0.729411765 14.7394958,1.32773109 14.5714286,2.04705882 C14.4168067,2.70588235 14.1176471,3.39495798 13.6806723,4.08403361 C13.3378151,4.63193277 13.0588235,4.98823529 12.5915966,5.4789916 C12.5882353,5.48235294 12.5848739,5.48907563 12.5781513,5.49243697 C12.5310924,5.5394958 12.3697479,5.70756303 12.2319328,5.80504202 C12.1142857,5.89243697 11.9831933,5.95294118 11.8521008,5.98319328 C11.8151261,5.99327731 11.7747899,5.99663866 11.7310924,6 L11.6369748,6 C11.5966387,5.99663866 11.5563025,5.99327731 11.5159664,5.98319328 C11.3815126,5.95294118 11.2504202,5.89243697 11.1327731,5.80504202 C10.9983193,5.70420168 10.8369748,5.5394958 10.789916,5.49243697 C10.3260504,4.99159664 10.0504202,4.63529412 9.70084034,4.08403361 Z M4.1512605,6.93109244 C3.76134454,7.31764706 3.56302521,7.93277311 3.56302521,8.76638655 C3.56302521,9.59663866 3.76134454,10.2151261 4.14789916,10.594958 C4.52436975,10.9647059 5.11260504,11.1495798 5.89915966,11.1495798 C6.68571429,11.1495798 7.28067227,10.9647059 7.65714286,10.5915966 C8.05042017,10.2084034 8.24537815,9.59327731 8.24537815,8.76302521 C8.24537815,7.92941176 8.04705882,7.31428571 7.65714286,6.92773109 C7.28067227,6.55462185 6.68907563,6.36638655 5.89915966,6.36638655 C5.11596639,6.3697479 4.52773109,6.55798319 4.1512605,6.93109244 L4.1512605,6.93109244 Z M5.89915966,12.1579832 C4.85042017,12.1579832 4.0302521,11.8789916 3.46554622,11.3210084 C2.87731092,10.7428571 2.57815126,9.88571429 2.57815126,8.7697479 C2.57815126,7.65378151 2.87731092,6.79327731 3.46554622,6.21176471 C4.03361345,5.65378151 4.85042017,5.36806723 5.89915966,5.36806723 C6.9512605,5.36806723 7.77142857,5.65378151 8.3394958,6.21176471 C8.92773109,6.79327731 9.2302521,7.65378151 9.2302521,8.7697479 C9.2302521,9.88571429 8.93109244,10.7428571 8.3394958,11.3210084 C7.77142857,11.8756303 6.9512605,12.1579832 5.89915966,12.1579832 L5.89915966,12.1579832 Z M15.9630252,6.93109244 C15.5731092,7.31764706 15.3747899,7.93277311 15.3747899,8.76638655 C15.3747899,9.59663866 15.5731092,10.2151261 15.9596639,10.594958 C16.3361345,10.9647059 16.9243697,11.1495798 17.7109244,11.1495798 C18.497479,11.1495798 19.092437,10.9647059 19.4689076,10.5915966 C19.8621849,10.2084034 20.0571429,9.59327731 20.0571429,8.76302521 C20.0571429,7.92941176 19.8588235,7.31428571 19.4689076,6.92773109 C19.092437,6.55462185 18.5008403,6.36638655 17.7109244,6.36638655 C16.9277311,6.3697479 16.3394958,6.55798319 15.9630252,6.93109244 Z M15.2773109,11.3176471 C14.6890756,10.7394958 14.389916,9.88235294 14.389916,8.76638655 C14.389916,7.65042017 14.6890756,6.78991597 15.2773109,6.20840336 C15.8453782,5.65042017 16.6621849,5.36470588 17.7109244,5.36470588 C18.7630252,5.36470588 19.5831933,5.65042017 20.1512605,6.20840336 C20.7394958,6.78991597 21.0420168,7.65042017 21.0420168,8.76638655 C21.0420168,9.88235294 20.7428571,10.7394958 20.1512605,11.3176471 C19.5831933,11.8756303 18.7630252,12.1546515 17.7109244,12.1546515 C16.6621849,12.1579832 15.8420168,11.8756303 15.2773109,11.3176471 L15.2773109,11.3176471 Z M12.7462185,12.6319328 C12.9310924,12.4504202 13.0252101,12.1310924 13.0252101,11.687395 C13.0252101,11.2403361 12.9310924,10.9210084 12.7462185,10.7361345 C12.5647059,10.5579832 12.2554622,10.4672269 11.8319328,10.4672269 C11.4117647,10.4672269 11.1058824,10.5579832 10.9243697,10.7361345 C10.7394958,10.9210084 10.6453782,11.2403361 10.6453782,11.687395 C10.6453782,12.1310924 10.7394958,12.4504202 10.9243697,12.6319328 C11.1058824,12.810084 11.4117647,12.9008403 11.8352941,12.9008403 C12.2554622,12.9008403 12.5613445,12.810084 12.7462185,12.6319328 L12.7462185,12.6319328 Z M11.8319328,9.46218487 C12.5210084,9.46218487 13.0554622,9.64705882 13.4285714,10.0134454 C13.8184874,10.3932773 14.0134454,10.9579832 14.0134454,11.687395 C14.0134454,12.4168067 13.8184874,12.9781513 13.4285714,13.3579832 C13.0554622,13.7210084 12.5210084,13.9058824 11.8319328,13.9058824 C11.1462185,13.9058824 10.6117647,13.7210084 10.2386555,13.3579832 C9.85546218,12.9781513 9.6605042,12.4168067 9.6605042,11.687395 C9.6605042,10.9579832 9.85546218,10.3932773 10.2386555,10.0134454 C10.6084034,9.64705882 11.1462185,9.46218487 11.8319328,9.46218487 Z M22.6386555,22.5445378 L22.6386555,17.687395 C22.6386555,16.8168067 22.4033613,16.0840336 21.9563025,15.5764706 C21.4655462,15.0184874 20.6957983,14.7193277 19.7411765,14.7193277 L15.687395,14.7193277 C15.0521008,14.7193277 14.5142857,14.8638655 14.0739496,15.112605 C14.4672269,15.2403361 14.8134454,15.4420168 15.0756303,15.7411765 C15.4857143,16.205042 15.7008403,16.8537815 15.7008403,17.610084 L15.7008403,22.5445378 L22.6386555,22.5445378 Z M14.712605,22.5445378 L14.712605,17.6134454 C14.712605,17.2840336 14.6521008,16.8201681 14.3630252,16.4907563 C14.0403361,16.1243697 13.5327731,16.0470588 13.1596639,16.0470588 L10.5042017,16.0470588 C10.4907563,16.0470588 10.4739496,16.0504202 10.4571429,16.0504202 C10.0907563,16.0571429 9.61008403,16.1378151 9.30084034,16.4907563 C9.01176471,16.8201681 8.9512605,17.2840336 8.9512605,17.6134454 L8.9512605,22.5714286 L14.7058824,22.5714286 L14.7058824,22.5445378 L14.712605,22.5445378 Z M7.97310924,17.6134454 C7.97310924,16.8571429 8.18823529,16.2084034 8.59495798,15.7445378 C8.85042017,15.4554622 9.17983193,15.2504202 9.56302521,15.1226891 C9.11932773,14.8672269 8.57142857,14.7226891 7.92941176,14.7226891 L3.87563025,14.7226891 C2.91764706,14.7226891 2.15462185,15.0184874 1.66386555,15.5764706 C1.22016807,16.0840336 0.988235294,16.8168067 0.988235294,17.6907563 L0.988235294,22.5478992 L7.97647059,22.5478992 L7.97647059,17.6134454 L7.97310924,17.6134454 Z M22.6621849,14.8302521 C23.2907563,15.5428571 23.6235294,16.5310924 23.6235294,17.687395 L23.6235294,23.2067227 C23.6235294,23.4352941 23.4521008,23.6201681 23.2436975,23.6201681 L0.376470588,23.6201681 C0.168067227,23.6201681 0,23.4352941 0,23.2067227 L0,17.687395 C0,16.5310924 0.329411765,15.5394958 0.951260504,14.8302521 C1.6302521,14.0537815 2.64201681,13.6403361 3.87226891,13.6403361 L7.92605042,13.6403361 C9.15966387,13.6403361 10.1714286,14.0504202 10.8504202,14.8268908 C10.887395,14.8705882 10.9142857,14.9210084 10.9478992,14.9647059 L12.6655462,14.9647059 C12.6991597,14.9210084 12.7260504,14.8705882 12.7596639,14.8302521 C13.4386555,14.0537815 14.4504202,13.6403361 15.6806723,13.6403361 L19.7344538,13.6403361 C20.9714286,13.6436975 21.9831933,14.0537815 22.6621849,14.8302521 L22.6621849,14.8302521 Z" id="Familia_1Light"></path>
        </g>
    </g>
</svg>

<svg width="24" height="24" viewBox="0 0 24 24" xmlns="http://www.w3.org/2000/svg"><path d="M9.842 1.123c-.175.15-.108.53-.07.689.127.548.383 1.133.756 1.727.312.498.551.8.981 1.254.07.074.138.138.185.175.05-.037.104-.09.165-.148l.003-.003.034-.034c.423-.447.659-.75.968-1.244.376-.594.632-1.18.763-1.727.037-.158.1-.538-.07-.69a.58.58 0 00-.344-.117h-.043c-.182 0-.373.054-.558.161-.118.064-.236.135-.367.212l-.232.141-.312.01c-.188 0-.37-.05-.531-.14-.148-.088-.266-.162-.38-.226a1.155 1.155 0 00-.558-.158c-.188.007-.316.054-.39.118zm-.141 2.961c-.434-.689-.736-1.375-.888-2.037-.168-.72-.03-1.318.39-1.684.242-.212.575-.34.931-.356.03-.004.061-.004.095-.004.346 0 .699.098 1.032.286.124.067.248.145.39.229.013.003.026.01.043.01.014 0 .03-.004.044-.01.134-.084.262-.158.386-.229A2.102 2.102 0 0113.16.003c.03 0 .06 0 .094.004.36.017.689.144.93.356.418.366.555.965.387 1.684-.154.659-.453 1.348-.89 2.037a7.862 7.862 0 01-1.09 1.395c-.003.003-.006.01-.013.013-.047.047-.208.216-.346.313a1.032 1.032 0 01-.38.178.657.657 0 01-.12.017h-.095a.748.748 0 01-.121-.017 1.021 1.021 0 01-.383-.178c-.135-.1-.296-.266-.343-.313-.464-.5-.74-.857-1.09-1.408zM4.15 6.931c-.39.387-.588 1.002-.588 1.835 0 .83.198 1.45.585 1.829.376.37.965.555 1.751.555.787 0 1.382-.185 1.758-.558.393-.384.588-.999.588-1.829 0-.834-.198-1.449-.588-1.835-.376-.373-.968-.562-1.758-.562-.783.004-1.371.192-1.748.565zM5.9 12.158c-1.049 0-1.869-.279-2.433-.837-.589-.578-.888-1.435-.888-2.551s.3-1.977.888-2.558c.568-.558 1.384-.844 2.433-.844 1.052 0 1.872.286 2.44.844.589.581.891 1.442.891 2.558 0 1.116-.299 1.973-.89 2.551-.569.555-1.389.837-2.44.837zm10.064-5.227c-.39.387-.588 1.002-.588 1.835 0 .83.198 1.45.585 1.829.376.37.964.555 1.75.555.787 0 1.382-.185 1.759-.558.393-.384.588-.999.588-1.829 0-.834-.198-1.449-.588-1.835-.377-.373-.968-.562-1.758-.562-.783.004-1.372.192-1.748.565zm-.686 4.387c-.588-.579-.887-1.436-.887-2.552s.3-1.976.887-2.558c.568-.558 1.385-.843 2.434-.843 1.052 0 1.872.285 2.44.843.588.582.891 1.442.891 2.558 0 1.116-.3 1.973-.89 2.552-.569.558-1.389.837-2.441.837-1.049.003-1.869-.28-2.434-.837zm-2.53 1.314c.184-.182.278-.5.278-.945 0-.447-.094-.766-.279-.95-.181-.179-.49-.27-.914-.27-.42 0-.726.091-.908.27-.185.184-.279.503-.279.95 0 .444.094.763.28.945.18.178.487.269.91.269.42 0 .726-.09.911-.27zm-.915-3.17c.689 0 1.223.185 1.597.551.39.38.584.945.584 1.674 0 .73-.195 1.291-.584 1.671-.374.363-.908.548-1.597.548-.686 0-1.22-.185-1.593-.548-.384-.38-.578-.941-.578-1.67 0-.73.194-1.295.578-1.675.37-.366.907-.55 1.593-.55zm10.807 13.083v-4.858c0-.87-.236-1.603-.683-2.11-.49-.559-1.26-.858-2.215-.858h-4.054c-.635 0-1.173.145-1.613.394.393.127.74.329 1.002.628.41.464.625 1.113.625 1.87v4.934h6.938zm-7.926 0v-4.932c0-.329-.06-.793-.35-1.122-.323-.367-.83-.444-1.203-.444h-2.656c-.013 0-.03.003-.047.003-.366.007-.847.088-1.156.44-.29.33-.35.794-.35 1.123v4.958h5.755v-.026h.007zm-6.74-4.932c0-.756.215-1.405.622-1.868.255-.29.585-.495.968-.622-.444-.256-.992-.4-1.634-.4H3.876c-.958 0-1.721.295-2.212.853-.444.508-.676 1.24-.676 2.115v4.857h6.988v-4.935h-.003zm14.69-2.783c.628.713.96 1.701.96 2.857v5.52c0 .228-.17.413-.38.413H.377c-.208 0-.376-.185-.376-.413v-5.52c0-1.156.33-2.148.951-2.857.68-.776 1.691-1.19 2.921-1.19h4.054c1.234 0 2.245.41 2.924 1.187.037.044.064.094.098.138h1.718c.033-.044.06-.094.094-.135.679-.776 1.69-1.19 2.92-1.19h4.054c1.237.004 2.25.414 2.928 1.19z" fill="#5CB615" fill-rule="nonzero"/></svg>
